X:131
T:score214
L:1/8
Q:1/4=96
M:3/4
I:linebreak $
K:C
 gb | Ta2 gdgb | Ta2 gdgb | Ta2 gdeG |$ c4 gb | Ta2 gdgb | Ta2 gdgb | Ta2 gdeG |$ c4 z2 |] %9
